TV/Source/AXN HD - Dark.svg

<svg height="2.488812mm" viewBox="0 0 8.3998508 2.488812" width="8.399851mm" xmlns="http://www.w3.org/2000/svg" xmlns:xlink="http://www.w3.org/1999/xlink"><clipPath id="a"><path d="m616.265 425.117h.004l-.977.974z"/></clipPath><linearGradient id="b" gradientTransform="matrix(2.8506563 0 0 -2.8506563 614.36829 425.65848)" gradientUnits="userSpaceOnUse" spreadMethod="pad" x1="0" x2="1" y1="0" y2="0"><stop offset="0" stop-color="#2e2e30"/><stop offset="1" stop-color="#28292a"/></linearGradient><linearGradient id="c"><stop offset="0" stop-color="#2e2e30"/><stop offset="1" stop-color="#222526"/></linearGradient><linearGradient id="d" gradientTransform="matrix(1.6280183 -1.6280183 -1.6280183 -1.6280183 616.26788 426.19864)" gradientUnits="userSpaceOnUse" spreadMethod="pad" x1="0" x2="1" xlink:href="#c" y1="0" y2="0"/><linearGradient id="e"><stop offset="0" stop-color="#fff"/><stop offset="1" stop-color="#a4a7a6"/></linearGradient><linearGradient id="f" gradientTransform="matrix(1.6280183 -1.6280183 -1.6280183 -1.6280183 616.26788 426.19864)" gradientUnits="userSpaceOnUse" spreadMethod="pad" x1="0" x2="1" xlink:href="#e" y1="0" y2="0"/><linearGradient id="g" gradientTransform="matrix(1.628042 -1.628042 -1.628042 -1.628042 620.61011 426.20111)" gradientUnits="userSpaceOnUse" spreadMethod="pad" x1="0" x2="1" xlink:href="#c" y1="0" y2="0"/><linearGradient id="h" gradientTransform="matrix(1.628042 -1.628042 -1.628042 -1.628042 620.61011 426.20111)" gradientUnits="userSpaceOnUse" spreadMethod="pad" x1="0" x2="1" xlink:href="#e" y1="0" y2="0"/><clipPath id="i"><path d="m610.299 422.945h23.811v7.055h-23.811z"/></clipPath><g transform="translate(-52.496501 -101.47583)"><path d="m60.575618 103.26179c.02126-.002.0432-.003.06311-.0106.02017-.008.03958-.0194.05465-.0349.0172-.0177.02973-.0402.03808-.0634.01094-.0304.01374-.0636.01446-.0959.000685-.0312-.0016-.063-.0099-.0931-.007-.0253-.01665-.0509-.03314-.0712-.01592-.0196-.03743-.0355-.06064-.0455-.02903-.0125-.06195-.0132-.09343-.0159-.0356-.003-.107182 0-.107182 0v .43049s.08947.004.133977 0zm .01058-.55671c.04407 0 .08497.007.123048.0208.03773.0141.07051.0353.09837.0635.02786.0279.04936.0631.06522.10507.01552.042.02327.0917.02327.14844 0 .0497-.0063.0955-.01904.1375-.01269.0423-.03208.0786-.05782.1093-.02609.0303-.05817.0546-.09661.0723-.03878.0173-.08426.0261-.136445.0261h-.294747v-.68294z" fill="#2d2e30"/><g clip-path="url(#i)" transform="matrix(.35277777 0 0 -.35277777 -162.80356 253.17024)"><g transform="translate(625.4918 426.2011)"><path d="m0 0-1.628-1.628h3.256z" fill="#e3262b"/></g><g transform="translate(627.1198 424.5731)"><path d="m0 0-1.628 1.628.543-1.628z" fill="#852523"/></g><g transform="translate(624.4088 429.9998)"><path d="m0 0h-2.171" fill="#2d2e30"/></g><g transform="translate(622.2374 429.9999)"><path d="m0 0-2.172-2.172-1.081 1.085-2.173.001 2.169-2.168-1.084-1.088-3.256 3.256-4.341-4.34h2.171l.543.542h3.255l.543-.542-1.629-1.629h2.172l2.713 2.719 1.084-1.085h2.172l2.171 2.171 2.172-2.171 4.338 4.339-2.174-.001-2.165-2.167-2.175 2.167-3.257-3.256-1.083 1.081 3.258 3.258zm-7.595-3.254.543-.545h-1.088z" fill="#2d2e30"/></g></g><path d="m621.15 426.742 1.084-1.082v.001l-1.082 1.082zm-1.084-1.08 1.087-1.089.005.006h-.006l-1.084 1.085z" fill="url(#h)" transform="matrix(.35277777 0 0 -.35277777 -162.80356 253.17024)"/><path d="m618.985 426.745 1.081-1.083.002.002 1.084-1.085h.006l1.079 1.079-.003.003v-.001l-1.084 1.082.002.001-1.084 1.085z" fill="url(#g)" transform="matrix(.35277777 0 0 -.35277777 -162.80356 253.17024)"/><path d="m614.642 426.742.541-.542h.002l-.54.544zm1.623-1.625.545-.546.001.002-.542.544z" fill="url(#f)" transform="matrix(.35277777 0 0 -.35277777 -162.80356 253.17024)"/><path d="m615.726 427.825-1.081-1.081.54-.544h-.002l.001-.001.108-.108.977-.974.542-.544 1.084 1.084zm.539-2.708h.004zm.545-.546.001.002z" fill="url(#d)" transform="matrix(.35277777 0 0 -.35277777 -162.80356 253.17024)"/><path d="m613.556 426.2-1.085-1.083h3.794l-.973.974-.109.109z" fill="url(#b)" transform="matrix(.35277777 0 0 -.35277777 -162.80356 253.17024)"/><g clip-path="url(#a)" transform="matrix(.35277777 0 0 -.35277777 -162.80356 253.17024)"><g transform="matrix(2.3999999 0 0 -2.3999999 614.39999 426.71997)"><image height="1" image-rendering="optimizeSpeed" preserveAspectRatio="none" transform="matrix(1 0 0 -1 0 1)" width="1" xlink:href="data:image/png;base64,iVBORw0KGgoAAAANSUhEUgAAAAUAAAAFCAYAAACNbyblAAAABHNCSVQICAgIfAhkiAAAADhJREFUCJlNy8ENgEAMA8FddO1w9F9cHB6nCCz5M7K999PpJhUqRbpZTAQV4aBT5RqEb8Uf54HyAvdiDZdeqYllAAAAAElFTkSuQmCC"/></g></g><path d="m0 0v-.744h.784v.744h.426v-1.937h-.426v.835h-.784v-.835h-.426v1.937z" fill="#2d2e30" transform="matrix(.35277777 0 0 -.35277777 59.809055 102.70502)"/></g></svg>

<?xml version="1.0" encoding="UTF-8" standalone="no"?>
<!-- Created with Inkscape (http://www.inkscape.org/) -->

<svg
   xmlns:dc="http://purl.org/dc/elements/1.1/"
   xmlns:cc="http://creativecommons.org/ns#"
   xmlns:rdf="http://www.w3.org/1999/02/22-rdf-syntax-ns#"
   xmlns:svg="http://www.w3.org/2000/svg"
   xmlns="http://www.w3.org/2000/svg"
   xmlns:xlink="http://www.w3.org/1999/xlink"
   xmlns:sodipodi="http://sodipodi.sourceforge.net/DTD/sodipodi-0.dtd"
   xmlns:inkscape="http://www.inkscape.org/namespaces/inkscape"
   width="8.3998508mm"
   height="2.488812mm"
   viewBox="0 0 8.3998508 2.488812"
   version="1.1"
   id="svg51486"
   inkscape:version="0.92.0 r15299"
   sodipodi:docname="AXN HD - Dark.svg">
  <defs
     id="defs51480">
    <clipPath
       clipPathUnits="userSpaceOnUse"
       id="clipPath4290">
      <path
         d="M 610.299,422.945 H 634.11 V 430 h -23.811 z"
         id="path4288"
         inkscape:connector-curvature="0" />
    </clipPath>
    <clipPath
       clipPathUnits="userSpaceOnUse"
       id="clipPath4278">
      <path
         d="m 616.265,425.117 h 0.004 l -0.977,0.974 z"
         id="path4276"
         inkscape:connector-curvature="0" />
    </clipPath>
    <linearGradient
       x1="0"
       y1="0"
       x2="1"
       y2="0"
       gradientUnits="userSpaceOnUse"
       gradientTransform="matrix(2.8506563,0,0,-2.8506563,614.36829,425.65848)"
       spreadMethod="pad"
       id="linearGradient4268">
      <stop
         style="stop-opacity:1;stop-color:#2e2e30"
         offset="0"
         id="stop4264" />
      <stop
         style="stop-opacity:1;stop-color:#28292a"
         offset="1"
         id="stop4266" />
    </linearGradient>
    <linearGradient
       x1="0"
       y1="0"
       x2="1"
       y2="0"
       gradientUnits="userSpaceOnUse"
       gradientTransform="matrix(1.6280183,-1.6280183,-1.6280183,-1.6280183,616.26788,426.19864)"
       spreadMethod="pad"
       id="linearGradient4248">
      <stop
         style="stop-opacity:1;stop-color:#2e2e30"
         offset="0"
         id="stop4242" />
      <stop
         style="stop-opacity:1;stop-color:#222526"
         offset="1"
         id="stop4244" />
      <stop
         style="stop-opacity:1;stop-color:#222526"
         offset="1"
         id="stop4246" />
    </linearGradient>
    <linearGradient
       x1="0"
       y1="0"
       x2="1"
       y2="0"
       gradientUnits="userSpaceOnUse"
       gradientTransform="matrix(1.6280183,-1.6280183,-1.6280183,-1.6280183,616.26788,426.19864)"
       spreadMethod="pad"
       id="linearGradient4226">
      <stop
         style="stop-opacity:1;stop-color:#ffffff"
         offset="0"
         id="stop4220" />
      <stop
         style="stop-opacity:1;stop-color:#a4a7a6"
         offset="1"
         id="stop4222" />
      <stop
         style="stop-opacity:1;stop-color:#a4a7a6"
         offset="1"
         id="stop4224" />
    </linearGradient>
    <linearGradient
       x1="0"
       y1="0"
       x2="1"
       y2="0"
       gradientUnits="userSpaceOnUse"
       gradientTransform="matrix(1.628042,-1.628042,-1.628042,-1.628042,620.61011,426.20111)"
       spreadMethod="pad"
       id="linearGradient4204">
      <stop
         style="stop-opacity:1;stop-color:#2e2e30"
         offset="0"
         id="stop4198" />
      <stop
         style="stop-opacity:1;stop-color:#222526"
         offset="1"
         id="stop4200" />
      <stop
         style="stop-opacity:1;stop-color:#222526"
         offset="1"
         id="stop4202" />
    </linearGradient>
    <linearGradient
       x1="0"
       y1="0"
       x2="1"
       y2="0"
       gradientUnits="userSpaceOnUse"
       gradientTransform="matrix(1.628042,-1.628042,-1.628042,-1.628042,620.61011,426.20111)"
       spreadMethod="pad"
       id="linearGradient4182">
      <stop
         style="stop-opacity:1;stop-color:#ffffff"
         offset="0"
         id="stop4176" />
      <stop
         style="stop-opacity:1;stop-color:#a4a7a6"
         offset="1"
         id="stop4178" />
      <stop
         style="stop-opacity:1;stop-color:#a4a7a6"
         offset="1"
         id="stop4180" />
    </linearGradient>
    <clipPath
       clipPathUnits="userSpaceOnUse"
       id="clipPath4146">
      <path
         d="M 610.299,422.945 H 634.11 V 430 h -23.811 z"
         id="path4144"
         inkscape:connector-curvature="0" />
    </clipPath>
  </defs>
  <sodipodi:namedview
     id="base"
     pagecolor="#ffffff"
     bordercolor="#666666"
     borderopacity="1.0"
     inkscape:pageopacity="0.0"
     inkscape:pageshadow="2"
     inkscape:zoom="31.678384"
     inkscape:cx="15.877201"
     inkscape:cy="1.8473481"
     inkscape:document-units="mm"
     inkscape:current-layer="layer1"
     showgrid="false"
     fit-margin-top="0"
     fit-margin-left="0"
     fit-margin-right="0"
     fit-margin-bottom="0"
     inkscape:window-width="1920"
     inkscape:window-height="1017"
     inkscape:window-x="-8"
     inkscape:window-y="-8"
     inkscape:window-maximized="1" />
  <metadata
     id="metadata51483">
    <rdf:RDF>
      <cc:Work
         rdf:about="">
        <dc:format>image/svg+xml</dc:format>
        <dc:type
           rdf:resource="http://purl.org/dc/dcmitype/StillImage" />
        <dc:title />
      </cc:Work>
    </rdf:RDF>
  </metadata>
  <g
     inkscape:label="Layer 1"
     inkscape:groupmode="layer"
     id="layer1"
     transform="translate(-52.496501,-101.47583)">
    <path
       sodipodi:nodetypes="aaaaaaaaaccascccscccsccs"
       inkscape:connector-curvature="0"
       id="path4298-7"
       style="fill:#2d2e30;fill-opacity:1;fill-rule:nonzero;stroke:none;stroke-width:0.35257122"
       d="m 60.575618,103.26179 c 0.02126,-0.002 0.0432,-0.003 0.06311,-0.0106 0.02017,-0.008 0.03958,-0.0194 0.05465,-0.0349 0.0172,-0.0177 0.02973,-0.0402 0.03808,-0.0634 0.01094,-0.0304 0.01374,-0.0636 0.01446,-0.0959 6.85e-4,-0.0312 -0.0016,-0.063 -0.0099,-0.0931 -0.007,-0.0253 -0.01665,-0.0509 -0.03314,-0.0712 -0.01592,-0.0196 -0.03743,-0.0355 -0.06064,-0.0455 -0.02903,-0.0125 -0.06195,-0.0132 -0.09343,-0.0159 -0.0356,-0.003 -0.107182,0 -0.107182,0 v 0.43049 c 0,0 0.08947,0.004 0.133977,0 z m 0.01058,-0.55671 c 0.04407,0 0.08497,0.007 0.123048,0.0208 0.03773,0.0141 0.07051,0.0353 0.09837,0.0635 0.02786,0.0279 0.04936,0.0631 0.06522,0.10507 0.01552,0.042 0.02327,0.0917 0.02327,0.14844 0,0.0497 -0.0063,0.0955 -0.01904,0.1375 -0.01269,0.0423 -0.03208,0.0786 -0.05782,0.1093 -0.02609,0.0303 -0.05817,0.0546 -0.09661,0.0723 -0.03878,0.0173 -0.08426,0.0261 -0.136445,0.0261 h -0.294747 v -0.68294 z" />
    <g
       transform="matrix(0.35277777,0,0,-0.35277777,-162.80356,253.17024)"
       id="g4140">
      <g
         id="g4142"
         clip-path="url(#clipPath4146)">
        <g
           id="g4148"
           transform="translate(625.4918,426.2011)">
          <path
             d="M 0,0 -1.628,-1.628 H 1.628 Z"
             style="fill:#e3262b;fill-opacity:1;fill-rule:nonzero;stroke:none"
             id="path4150"
             inkscape:connector-curvature="0" />
        </g>
        <g
           id="g4152"
           transform="translate(627.1198,424.5731)">
          <path
             d="M 0,0 -1.628,1.628 -1.085,0 Z"
             style="fill:#852523;fill-opacity:1;fill-rule:nonzero;stroke:none"
             id="path4154"
             inkscape:connector-curvature="0" />
        </g>
        <g
           id="g4156"
           transform="translate(624.4088,429.9998)">
          <path
             d="M 0,0 H -2.171"
             style="fill:#2d2e30;fill-opacity:1;fill-rule:nonzero;stroke:none"
             id="path4158"
             inkscape:connector-curvature="0" />
        </g>
        <g
           id="g4160"
           transform="translate(622.2374,429.9999)">
          <path
             d="m 0,0 -2.172,-2.172 -1.081,1.085 -2.173,10e-4 2.169,-2.168 -1.084,-1.088 -3.256,3.256 -4.341,-4.34 h 2.171 l 0.543,0.542 h 3.255 l 0.543,-0.542 -1.629,-1.629 h 2.172 l 2.713,2.719 1.084,-1.085 H 1.086 L 3.257,-3.25 5.429,-5.421 9.767,-1.082 7.593,-1.083 5.428,-3.25 3.253,-1.083 -0.004,-4.339 -1.087,-3.258 2.171,0 H 0 m -7.595,-3.254 0.543,-0.545 H -8.14 Z"
             style="fill:#2d2e30;fill-opacity:1;fill-rule:nonzero;stroke:none"
             id="path4162"
             inkscape:connector-curvature="0" />
        </g>
      </g>
    </g>
    <g
       transform="matrix(0.35277777,0,0,-0.35277777,-162.80356,253.17024)"
       id="g4164">
      <g
         id="g4166">
        <g
           id="g4172">
          <g
             id="g4174">
            <path
               d="m 621.15,426.742 1.084,-1.082 v 10e-4 l -1.082,1.082 z m -1.084,-1.08 1.087,-1.089 0.005,0.006 h -0.006 l -1.084,1.085 z"
               style="fill:url(#linearGradient4182);stroke:none"
               id="path4184"
               inkscape:connector-curvature="0" />
          </g>
        </g>
      </g>
    </g>
    <g
       transform="matrix(0.35277777,0,0,-0.35277777,-162.80356,253.17024)"
       id="g4186">
      <g
         id="g4188">
        <g
           id="g4194">
          <g
             id="g4196">
            <path
               d="m 618.985,426.745 1.081,-1.083 0.002,0.002 1.084,-1.085 h 0.006 l 1.079,1.079 -0.003,0.003 v -10e-4 l -1.084,1.082 0.002,10e-4 -1.084,1.085 z"
               style="fill:url(#linearGradient4204);stroke:none"
               id="path4206"
               inkscape:connector-curvature="0" />
          </g>
        </g>
      </g>
    </g>
    <g
       transform="matrix(0.35277777,0,0,-0.35277777,-162.80356,253.17024)"
       id="g4208">
      <g
         id="g4210">
        <g
           id="g4216">
          <g
             id="g4218">
            <path
               d="m 614.642,426.742 0.541,-0.542 h 0.002 l -0.54,0.544 z m 1.623,-1.625 0.545,-0.546 0.001,0.002 -0.542,0.544 z"
               style="fill:url(#linearGradient4226);stroke:none"
               id="path4228"
               inkscape:connector-curvature="0" />
          </g>
        </g>
      </g>
    </g>
    <g
       transform="matrix(0.35277777,0,0,-0.35277777,-162.80356,253.17024)"
       id="g4230">
      <g
         id="g4232">
        <g
           id="g4238">
          <g
             id="g4240">
            <path
               d="m 615.726,427.825 -1.081,-1.081 0.54,-0.544 h -0.002 l 10e-4,-10e-4 0.108,-0.108 0.977,-0.974 0.542,-0.544 1.084,1.084 z m 0.539,-2.708 h 0.004 z m 0.545,-0.546 0.001,0.002 z"
               style="fill:url(#linearGradient4248);stroke:none"
               id="path4250"
               inkscape:connector-curvature="0" />
          </g>
        </g>
      </g>
    </g>
    <g
       transform="matrix(0.35277777,0,0,-0.35277777,-162.80356,253.17024)"
       id="g4252">
      <g
         id="g4254">
        <g
           id="g4260">
          <g
             id="g4262">
            <path
               d="m 613.556,426.2 -1.085,-1.083 h 3.794 l -0.973,0.974 -0.109,0.109 z"
               style="fill:url(#linearGradient4268);stroke:none"
               id="path4270"
               inkscape:connector-curvature="0" />
          </g>
        </g>
      </g>
    </g>
    <g
       transform="matrix(0.35277777,0,0,-0.35277777,-162.80356,253.17024)"
       id="g4272">
      <g
         id="g4274"
         clip-path="url(#clipPath4278)">
        <g
           id="g4280"
           transform="matrix(2.3999999,0,0,-2.3999999,614.39999,426.71997)">
          <image
             width="1"
             height="1"
             style="image-rendering:optimizeSpeed"
             preserveAspectRatio="none"
             transform="matrix(1,0,0,-1,0,1)"
             xlink:href="data:image/png;base64,iVBORw0KGgoAAAANSUhEUgAAAAUAAAAFCAYAAACNbyblAAAABHNCSVQICAgIfAhkiAAAADhJREFUCJlNy8ENgEAMA8FddO1w9F9cHB6nCCz5M7K999PpJhUqRbpZTAQV4aBT5RqEb8Uf54HyAvdiDZdeqYllAAAAAElFTkSuQmCC"
             id="image4282" />
        </g>
      </g>
    </g>
    <g
       id="g4292"
       transform="matrix(0.35277777,0,0,-0.35277777,59.809055,102.70502)">
      <path
         d="M 0,0 V -0.744 H 0.784 V 0 H 1.21 V -1.937 H 0.784 v 0.835 H 0 V -1.937 H -0.426 V 0 Z"
         style="fill:#2d2e30;fill-opacity:1;fill-rule:nonzero;stroke:none"
         id="path4294"
         inkscape:connector-curvature="0" />
    </g>
  </g>
</svg>
